icons/line/duplicate.svg

<svg width="24" height="24" viewBox="0 0 24 24" fill="none" xmlns="http://www.w3.org/2000/svg">
<path d="M15 9H18C19.6569 9 21 10.3431 21 12V18C21 19.6569 19.6569 21 18 21H12C10.3431 21 9 19.6569 9 18V15M15 9H12C10.3431 9 9 10.3431 9 12V15M15 9V6C15 4.34315 13.6569 3 12 3H6C4.34315 3 3 4.34315 3 6V12C3 13.6569 4.34315 15 6 15H9" stroke="currentColor" stroke-width="2" stroke-linecap="round" stroke-linejoin="round"/>
</svg>

<svg width="24" height="24" fill="none" xmlns="http://www.w3.org/2000/svg"><path d="M15 9h3a3 3 0 013 3v6a3 3 0 01-3 3h-6a3 3 0 01-3-3v-3m6-6h-3a3 3 0 00-3 3v3m6-6V6a3 3 0 00-3-3H6a3 3 0 00-3 3v6a3 3 0 003 3h3" stroke="currentColor" stroke-width="2" stroke-linecap="round" stroke-linejoin="round"/></svg>
